src/objects/tool/1F5E1.svg

<svg id="emoji" viewBox="0 0 72 72" xmlns="http://www.w3.org/2000/svg">
  <g id="grid">
    <path fill="#b3b3b3" d="M68,4V68H4V4H68m4-4H0V72H72V0Z"/>
    <path fill="none" stroke="#00a5ff" stroke-miterlimit="10" stroke-width="0.1" d="M12.923,10.9583H59.0769A1.9231,1.9231,0,0,1,61,12.8814V59.0352a1.9231,1.9231,0,0,1-1.9231,1.9231H12.9231A1.9231,1.9231,0,0,1,11,59.0352V12.8813A1.923,1.923,0,0,1,12.923,10.9583Z"/>
    <rect x="16" y="4" rx="2.2537" width="40" height="64" fill="none" stroke="#00a5ff" stroke-miterlimit="10" stroke-width="0.1"/>
    <rect x="16" y="4" rx="2.2537" width="40" height="64" transform="translate(72) rotate(90)" fill="none" stroke="#00a5ff" stroke-miterlimit="10" stroke-width="0.1"/>
    <circle cx="36" cy="36" r="29" fill="none" stroke="#00a5ff" stroke-miterlimit="10" stroke-width="0.1"/>
  </g>
  <g id="color">
    <path fill="#3F3F3F" stroke="none" d="M35,27.1661h2c0,0,4-11,4-16l-0.0005-0.0676C40.9633,8.3682,38.7388,6.1661,36,6.1661 c-2.7369,0-4.9602,2.199-4.9995,4.9265L31,11.1661C31,16.1661,35,27.1661,35,27.1661"/>
    <path fill="#9B9B9A" stroke="none" d="M28,27.1661c0,0-5,3,0,5c0,0,8-2,17,0c0,0,4-4-1-5C44,27.1661,38,28.1661,28,27.1661z"/>
    <path fill="#D0CFCE" stroke="none" d="M36,65.71c-1.9819-4.6245-3.0667-9.5836-3.1967-14.6133l-0.488-18.8943c0,0,3.6847-0.4924,7.6847,0 l-0.488,18.8943c-0.1299,5.0297-1.2147,9.9888-3.1967,14.6133"/>
  </g>
  <g id="hair"/>
  <g id="skin"/>
  <g id="skin-shadow"/>
  <g id="line">
    <path fill="none" stroke="#000000" stroke-linecap="round" stroke-linejoin="round" stroke-miterlimit="10" stroke-width="2" d="M35,26.9064h2c0,0,4-11,4-16l-0.0005-0.0676C40.9633,8.1086,38.7388,5.9064,36,5.9064c-2.7369,0-4.9602,2.199-4.9995,4.9265 L31,10.9064C31,15.9064,35,26.9064,35,26.9064"/>
    <path fill="none" stroke="#000000" stroke-linecap="round" stroke-linejoin="round" stroke-miterlimit="10" stroke-width="2" d="M28,26.9064c-1.6569,0-3,1.3431-3,3s1.3431,3,3,3v-0.0151"/>
    <path fill="none" stroke="#000000" stroke-linecap="round" stroke-linejoin="round" stroke-miterlimit="10" stroke-width="2" d="M44,32.8913v0.0151c1.6569,0,3-1.3431,3-3s-1.3431-3-3-3"/>
    <path fill="none" stroke="#000000" stroke-linecap="round" stroke-linejoin="round" stroke-miterlimit="10" stroke-width="2" d="M28,26.9064c5.2525,1.3131,10.7475,1.3131,16,0"/>
    <path fill="none" stroke="#000000" stroke-linecap="round" stroke-linejoin="round" stroke-miterlimit="10" stroke-width="2" d="M44,32.8913c-5.2525-1.3132-10.7475-1.3132-16,0"/>
    <path fill="none" stroke="#000000" stroke-linecap="round" stroke-linejoin="round" stroke-miterlimit="10" stroke-width="2" d="M36,65.71c-1.9819-4.6245-3.0667-9.5836-3.1967-14.6133l-0.488-18.8943c0,0,3.6847-0.4924,7.6847,0l-0.488,18.8943 c-0.1299,5.0297-1.2147,9.9888-3.1967,14.6133"/>
  </g>
</svg>

<svg viewBox="0 0 72 72" xmlns="http://www.w3.org/2000/svg"><path fill="#b3b3b3" d="M68 4v64H4V4h64m4-4H0v72h72V0z"/><path fill="none" stroke="#00a5ff" stroke-miterlimit="10" stroke-width=".1" d="M12.923 10.958h46.154A1.923 1.923 0 0161 12.881v46.154a1.923 1.923 0 01-1.923 1.923H12.923A1.923 1.923 0 0111 59.035V12.881a1.923 1.923 0 011.923-1.923z"/><rect x="16" y="4" rx="2.254" width="40" height="64" fill="none" stroke="#00a5ff" stroke-miterlimit="10" stroke-width=".1"/><rect x="16" y="4" rx="2.254" width="40" height="64" transform="rotate(90 36 36)" fill="none" stroke="#00a5ff" stroke-miterlimit="10" stroke-width=".1"/><circle cx="36" cy="36" r="29" fill="none" stroke="#00a5ff" stroke-miterlimit="10" stroke-width=".1"/><g stroke-linecap="round" stroke-miterlimit="10" stroke-width="6" stroke="#fff" fill="none" stroke-linejoin="round"><path d="M35 26.906h2s4-11 4-16v-.067a5 5 0 00-10-.006v.073c0 5 4 16 4 16m-7 0a3 3 0 100 6v-.015m16 0v.015a3 3 0 100-6m-16 0a32.985 32.985 0 0016 0m0 5.985a32.983 32.983 0 00-16 0"/><path d="M36 65.71a39.702 39.702 0 01-3.197-14.613l-.488-18.895s3.685-.492 7.685 0l-.488 18.895a39.698 39.698 0 01-3.197 14.613"/></g><path fill="#3F3F3F" d="M35 27.166h2s4-11 4-16v-.068a5 5 0 00-10-.005v.073c0 5 4 16 4 16"/><path fill="#9B9B9A" d="M28 27.166s-5 3 0 5c0 0 8-2 17 0 0 0 4-4-1-5 0 0-6 1-16 0z"/><path fill="#D0CFCE" d="M36 65.71a39.702 39.702 0 01-3.197-14.613l-.488-18.895s3.685-.492 7.685 0l-.488 18.895a39.698 39.698 0 01-3.197 14.613"/><g fill="none" stroke="#000" stroke-linecap="round" stroke-linejoin="round" stroke-miterlimit="10" stroke-width="2"><path d="M35 26.906h2s4-11 4-16v-.067a5 5 0 00-10-.006v.073c0 5 4 16 4 16m-7 0a3 3 0 100 6v-.015m16 0v.015a3 3 0 100-6m-16 0a32.985 32.985 0 0016 0m0 5.985a32.983 32.983 0 00-16 0"/><path d="M36 65.71a39.702 39.702 0 01-3.197-14.613l-.488-18.895s3.685-.492 7.685 0l-.488 18.895a39.698 39.698 0 01-3.197 14.613"/></g></svg>
